X:1
T:James Gibb editions
T:Benedicta sit - Handl
T:#
%%score [ 1 2 3 4 ]
L:1/8
Q:1/4=90
M:4/4
K:C
V:1 treble nm="Soprano" snm="S"
V:2 treble nm="Alto" snm="A"
V:3 treble-8 nm="Tenor" snm="T"
V:4 bass nm="Bass" snm="B"
V:1
"^Benedicta sit sancta creatrix""^Jacob Handl\n(1550-91)" A6 A2 | G2 F2 E4 | (D3 E F4) | E2 D2 G4 | %4
w: Be- ne-|di- cta sit|san\- * *|cta cre- a-|
 C2 c4 c2 | B2 A4"^1" ^G2 | (A3 G F2 ED | E2 E2 (E3 D | C2) F4 E2 | F8 | z2 E2 F2 F2- | %11
w: trix et gu-|ber- na- trix|o\- * * * *|* mni- um, *|* o- mni-|um,|san- cta et|
 F2 E2 D D2 ^C | D2 A2 c2 c2- | c2 _B2 A2 A2- | A2 G2 F4 | G3 G F2 A2 | _B2 B4 A2 | %17
w: * in- di- vi- du-|a, san- cta et|* in- di- vi\-|* du- a|Tri- ni- tas, san-|cta et in-|
 G _B2 B A2 A2- | A2 F2 E4 | z2 D2 F2 F2- | F2 E2 D D2 ^C | D2 D4 ^C2 | D4 z2 c2- | c2 BA G2) A2 | %24
w: di- vi- du- a Tri\-|* ni- tas,|san- cta et|* in- di- vi- du-|a Tri- ni-|tas, nunc|* * * * et|
 (BA A3 ^G G2) | A2 (A4 GF | E2) F2 (E3 D | EC F2) E4 | A2 F2 DD G2 | E2 A>A F2 D>D | G2 E2 A2 F2 | %31
w: sem\- * * * *|per, nunc * *|* et sem\- *|* * * per|et per in- fi- ni-|ta sae- cu- la sae- cu-|lo- rum, et per|
 DD G2 E2 A>A |[Q:1/4=89] F2[Q:1/4=87] D>[Q:1/4=86]D[Q:1/4=85] G2[Q:1/4=84] E2 |[Q:1/4=79] A8 | %34
w: in- fi- ni- ta sae- cu-|la sae- cu- lo- rum.|a-|
[Q:1/4=76] A8 |] %35
w: men.-|
V:2
 z2 D4 A,2 | C2 D2 E2 G2 | (F3 E DC_B,A, | G,2) A,2 B,4 | A,2 A2 A2 A2 | E4 E4- | E4 (A,B,CA, | %7
w: Be- ne-|di- cta sit san-|cta * * * * *|* cre- a-|trix et gu- ber-|na- trix|* o\- * * *|
 G,2 C2 B,4 | z2 A,2 C2 C2- | C2 _B,2 A,2 A,2- | A,2 G,2 A,2 D2- | DD E2 z2 E2 | F2 F4 E2 | %13
w: * mi- um,|san cta et|* in- di- vi\-|* du- a Tri\-|* ni- tas, san-|cta et in-|
 F2 F4 E2 | D2 D4 C2 | D4 z2 E2 | G4 D4 | D2 G2 F2 E2 | F2 D4 ^C2 | D4 z2 A,2 | _B,2 B,2 A,2 A,2 | %21
w: di- vi- du-|a Tri- ni-|tas, san-|cta et|in- di- vi- du-|a Tri- ni-|tas, san-|cta et in- di-|
 F,2 G,2 A, A,2 A, | A,2 F4 ED | C2) D2 (E4 | F4) (E3 D | C4) z4 | z2 (D4 CB, | C2) D4 ^C2 | %28
w: vi- du- a Tri- ni-|tas, nunc * *|* et sem\-|* per, *||nunc * *|* et sem-|
 D4 z2 E2- | E C2 A, A, D2 B,- | B,E>E C>xA,>A,D- | D B,2 E3/2 x/ C2 A, | A, D2 B,2 E>EG | %33
w: per et|* per in- fi- ni- ta|* sae- cu- la sae- cu- lo\-|* rum, et per in-|fi- ni- ta sae- cu- la|
 F>F F2 E2 E2 | ^F8 |] %35
w: sae- cu- lo- rum A-|men.|
V:3
 z8 | z8 | z2 A4 d2 | B2 A2 G2 E2 | (F3 G ABcd | e2) c2 B4 | A2 c4 c2 | B2 A4 ^G2 | (AGAF G3) G | %9
w: ||Be- ne-|di- cta sit san-|cta * * * * *|* cre- a-|trix et gu-|ber- na- trix|o\- * * * * mni-|
 F4 z2 A2 | c2 c4 _B2 | A2 A4 G2 | A4 z2 A2 | d2 d4 c2 | _B2 B4 A2 | G2 d4 ^c2 | d4 z2 D2 | %17
w: um, san-|cta et in-|di- vi- du-|a, san-|cta et in-|di- vi- du-|a Tri- ni-|tas, san-|
 d2 d4 ^c2 | d4 A3 A | F4 D2 F2 | G2 GG F2 E2 | D4 E3 E | D2 (d4 cB | A2) (B2- BG c2) | (d3 c B4) | %25
w: cta et in-|di- vi- du-|a, san- cta|et in- di- vi- du-|a Tri- ni-|tas, nunc * *|* et * * *|sem\- * *|
 A4 z4 | z2 (A4 GF | E2) D2 A4 | D2 d2 B2 GG | c2 A2 d>d B2 | G>G c2 A2 d2 | B2 GG c2 A2 | %32
w: per,|nunc * *|* et sem-|per et per in- fi-|ni- ta sae- cu- la|sae- cu- lo- rum, et|per in- fi- ni- ta|
 d>d B2 e>e c2 | A2 (d4 ^c2) | d8 |] %35
w: sae- cu- la sae- cu- lo-|rum. A\- *|men.|
V:4
 z8 | z8 | D,6 D,2 | E,2 ^F,2 G,4 | (A,3 G, F,4) | ^G,2 A,2 E,4 | C2 A,2 A,2 A,2 | E,4 E,4 | %8
w: ||Be- ne-|di- cta sit|san\- * *|cta cre- a-|trix et gu- ber-|na- trix|
 F,2 D,2 C,4 | z2 D,2 F,2 F,2- | F,2 E,2 D,2 D,2- | D,2 ^C,2 D,2 E,>E, | D,4 z4 | z8 | z6 A,2 | %15
w: o- mni- um,|san- cta et|* in- di- vi\-|* du- a Tri- ni-|tas,||san-|
 _B,2 B,4 A,2 | G,2 G,4 ^F,2 | G,4 A,3 A, | D,4 z2 A,,2 | _B,,2 B,,4 A,,2 | G,,4 A,,3 A,, | %21
w: cta et in-|di- vi- du-|a Tri- ni-|tas, san-|cta et in-|di- vi- du-|
 _B,,4 A,,3 A,, | D,4 z2 (A,2- | A,2 G,F, E,2) A,2 | D,4 E,4 | z2 (F,4 E,D, | C,2) D,2 E,2 E,2 | %27
w: a Tri- ni-|tas, nunc|* * * * et|sem- per,|nunc * *|* et sem- per|
 z6 A,2 | F,2 D,D, G,2 E,2 | A,>A, F,2 D,>D, G,2 | E,2 A,2 F,2 D,D, | G,2 E,2 A,>A, F,2 | %32
w: et|per in- fi- ni- ta|sae- cu- la sae- cu- lo-|rum, et per in- fi-|ni- ta sae- cu- la|
 D,>D, G,2 E,4 | (F,3 G, A,4) | D,8 |] %35
w: sae- cu- lo- rum.|A\- * *|men.|

